!! 00000] TT[WS
!!!OTL: Huen Jiang long
!!!ARE: Asia, China,ÿShanxi Qinyuan
!! Ethnic Group: Han
!! WI, 77
!!!SCT: J0094
!!!YEM: Copyright 1995, estate of Helmut Schaffrath.
**kern
*ICvox
*Ivox
*M2/4
*k[f#c#g#]
*A:
{4b
8f#
8a
=1
2b
=2
8.ee
16ff#
8ee
8cc#
=3
8.b
16ee
8cc#
8b}
=4
{4a
8e
8f#
=5
2a
=6
8.b
16cc#
8b
8a
=7
8b
4f#
8e
=8
2f#}
=9
{4b
8c#
8e
=10
2f#
=11
8.a
16b
8a
8f#
=12
8e
8a
8f#
8e}
=13
{4d
8A
8B
=14
2d
=15
8.e
16ff#
8e
8d
=16
8e
4B
8A
=17
2B}
=18
{4b
8f#
8a
=19
2b
=20
8ff#
8aa
8ee
8cc#
=21
2b}
=22
{8ff#
8aa
8ee
8cc#
=23
8b
8ee
8b
8a
=24
8f#
8a
8e
8f#
=25
2a}
=26
{8b
8cc#
8b
8a
=27
8b
4f#
8e
=28
2f#}
==
!!!AGN: Xiaodiao. Suku
!!!ONB: ESAC (Essen Associative Code) Database: CHINA
!!!AMT: simple duple
!!!AIN: vox
!!!EED: Helmut Schaffrath
!!!EEV: 1.0
*-
